X:1
T:After All
T:After All
T:Woodie Washington Smith
T:A. C. Benge, 1908
T:Public Domain Courtesy of the Cyber Hymnal™
C:Woodie Washington Smith
Z:Public Domain
Z:Courtesy of the Cyber Hymnal™
%%score ( 1 2 ) ( 3 4 )
L:1/8
Q:1/4=102
M:6/8
K:C
V:1 treble 
V:2 treble 
V:3 bass 
V:4 bass 
V:1
 [EG] | [EG]2 [EG] [Ec]2 [FA] | [EG]2 [FA] [EG]2 [EG] | [EG]2 [DF] [DF]2 [B,D] | %4
w: 1.~Al-|though our lives be|filled with bliss, With|floods of joy and|
w: 2.~Our|earth- ly joys shall|pass a- way, Just|like the fleet- ing|
w: 3.~Tho’|oft in sor- row|we be cast, Trust|Christ our Lord, it|
w: 4.~The|dark- est night shall|turn to day, And|sor- row’s clouds shall|
 [CE]2 [DF] !fermata![EG]2 [EG] | [EG]2 [EG] [Ge]2 [^Gd] | [Ac]2 [FA] !fermata![Fc]3 | %7
w: hap- pi- ness, There’ll|be a bright- er|world than this,|
w: of a day, But|we with Christ shall|live for aye,|
w: can- not last, For|in yon clime ’twill|all be past,|
w: pass a- way; With|Christ we’ll live an|end- less day,|
"^riten." [FA]2 [FA] [EG]3 | [Ec]2 [DB] [Ec]3 ||"^Refrain" ([Fc]3- [Ac][GB][FA]) | [EG]3- [EG]2 z | %11
w: Af- ter all,|af- ter all.|~ * * ~|~ *|
w: Af- ter all,|af- ter all.|Af- * * all,|af- *|
w: Af- ter all,|af- ter all.|~ * * ~|~ *|
w: Af- ter all,|af- ter all.|~ * * ~|~ *|
 ([DB]3- [DB][Ec])[Fd] | c3- [Ec]2 [EG] | [EG]2 [EG] [Ge]2 [^Gd] | [Ac]2 [FA] !fermata![Fc]3 | %15
w: ~ * * ~|There’ll be a|* bright- er world|than this, Af-|
w: ter * * all,|But we with|* Christ shall live|for aye, Af-|
w: ~ * * ~|For in yon|* clime ’twill all|be past, Af-|
w: ~ * * ~|With Christ we’ll|* live an end-|less day, Af-|
 [FA]2"^riten." [FA] [EG]3 | [Ec]2 [DB] !fermata![Ec]3 |] %17
w: ter all, af-|ter all. *|
w: ter all, af-|ter all. *|
w: ter all, af-|ter all. *|
w: ter all, af-|ter all. *|
V:2
 x | x6 | x6 | x6 | x6 | x6 | x6 | x6 | x6 || x6 | x6 | x6 | E2 F x3 | x6 | x6 | x6 | x6 |] %17
V:3
 [C,C] | [C,C]2 [C,C] [C,G,]2 [C,C] | [C,C]2 [C,C] [C,C]2 [C,C] | [G,B,]2 G, G,2 [G,,G,] | %4
w: |||* Af- ter *|
 [C,G,]2 [C,G,] !fermata![C,C]2 [C,C] | [C,C]2 [C,C] [C,C]2 [E,C] | [F,C]2 [F,C] !fermata![F,A,]3 | %7
w: |||
 [F,C]2 [F,C] [G,C]3 | [G,,G,]2 [G,,G,] [C,G,]3 || [F,A,]2 [F,A,] [F,C]2 z | %10
w: ||all, af- ter|
 [C,C]2 [C,C] [C,C]2 z | [G,,G,]2 [G,,G,] [G,,G,]2 z | [C,G,]2 [C,A,] [C,G,]2 [C,C] | %13
w: all, Af- ter|all, af- ter|all, * * *|
 [C,C]2 [C,C] [C,C]2 [E,C] | [F,C]2 [F,C] !fermata![F,A,]3 | [F,C]2 [F,C] [G,C]3 | %16
w: |||
 [G,,G,]2 [G,,G,] !fermata![C,G,]3 |] %17
w: |
V:4
 x | x6 | x6 | x2 G, G,2 x | x6 | x6 | x6 | x6 | x6 || x6 | x6 | x6 | x6 | x6 | x6 | x6 | x6 |] %17

